openmetadata-ui/src/main/resources/ui/src/assets/svg/ic-home.svg

<svg width="22" height="22" viewBox="0 0 22 22" fill="none" xmlns="http://www.w3.org/2000/svg">
<path d="M20.461 9.65999C20.4604 9.65953 20.4599 9.65892 20.4594 9.65846L12.301 1.50034C11.9533 1.15244 11.4909 0.960938 10.9991 0.960938C10.5073 0.960938 10.045 1.15244 9.69709 1.50034L1.54293 9.65434C1.54018 9.65709 1.53728 9.65999 1.53469 9.66274C0.820577 10.381 0.821798 11.5463 1.5382 12.2627C1.8655 12.5901 2.29763 12.7797 2.75982 12.7996C2.77874 12.8015 2.79766 12.8024 2.81674 12.8024H3.14175V18.8061C3.14175 19.9943 4.10855 20.961 5.29675 20.961H8.48859C8.81223 20.961 9.07453 20.6985 9.07453 20.375V15.668C9.07453 15.1259 9.51566 14.6849 10.0578 14.6849H11.9404C12.4826 14.6849 12.9236 15.1259 12.9236 15.668V20.375C12.9236 20.6985 13.1859 20.961 13.5095 20.961H16.7013C17.8897 20.961 18.8563 19.9943 18.8563 18.8061V12.8024H19.1579C19.6495 12.8024 20.1118 12.6109 20.4599 12.2628C21.1771 11.5454 21.1774 10.3779 20.461 9.65999ZM19.6312 11.4343C19.5047 11.5608 19.3365 11.6305 19.1579 11.6305H18.2704C17.9468 11.6305 17.6845 11.8928 17.6845 12.2165V18.8061C17.6845 19.3481 17.2435 19.7891 16.7013 19.7891H14.0954V15.668C14.0954 14.4798 13.1288 13.513 11.9404 13.513H10.0578C8.86945 13.513 7.90265 14.4798 7.90265 15.668V19.7891H5.29675C4.75476 19.7891 4.31363 19.3481 4.31363 18.8061V12.2165C4.31363 11.8928 4.05133 11.6305 3.72769 11.6305H2.85549C2.84634 11.6299 2.83733 11.6294 2.82803 11.6293C2.65347 11.6262 2.48974 11.557 2.36706 11.4341C2.10613 11.1732 2.10613 10.7486 2.36706 10.4875C2.36721 10.4875 2.36721 10.4873 2.36736 10.4872L2.36782 10.4867L10.5259 2.32889C10.6523 2.20239 10.8203 2.13281 10.9991 2.13281C11.1778 2.13281 11.3458 2.20239 11.4723 2.32889L19.6286 10.485C19.6298 10.4863 19.6312 10.4875 19.6324 10.4887C19.892 10.7501 19.8915 11.1738 19.6312 11.4343Z" fill="#76746F" stroke="#76746F" stroke-width="0.5"/>
</svg>

<svg xmlns="http://www.w3.org/2000/svg" width="22" height="22" fill="none"><path fill="#76746F" stroke="#76746F" stroke-width=".5" d="m20.461 9.66-.002-.002L12.301 1.5a1.829 1.829 0 0 0-1.302-.54 1.83 1.83 0 0 0-1.302.54L1.543 9.654l-.008.009a1.843 1.843 0 0 0 .003 2.6 1.83 1.83 0 0 0 1.279.54h.325v6.003c0 1.188.967 2.155 2.155 2.155h3.192a.586.586 0 0 0 .586-.586v-4.707c0-.542.44-.983.983-.983h1.882c.543 0 .984.44.984.983v4.707c0 .323.262.586.585.586h3.192a2.157 2.157 0 0 0 2.155-2.155v-6.004h.302A1.844 1.844 0 0 0 20.46 9.66Zm-.83 1.774a.665.665 0 0 1-.473.197h-.888a.586.586 0 0 0-.585.585v6.59a.984.984 0 0 1-.984.983h-2.606v-4.121a2.157 2.157 0 0 0-2.155-2.155h-1.882a2.158 2.158 0 0 0-2.155 2.155v4.121H5.297a.984.984 0 0 1-.983-.983v-6.59a.586.586 0 0 0-.586-.585h-.873a.664.664 0 0 1-.488-.196.67.67 0 0 1 0-.947v-.001l8.159-8.158a.664.664 0 0 1 .473-.196c.179 0 .347.07.473.196l8.157 8.156.003.004a.67.67 0 0 1 0 .945Z"/></svg>
